X:1
T:SONATA
T:in F minor, TWV 41: 1 For Trombone and Piano*
T:GEORG PHILLIPP TELEMANN (1681-1767)
T:*Originally for Bassoon or Recorder and Contiuo
T:Realization of the Figured Bass byROBERT VEYRON-LACROIX
T:1903
T:© Copyright 1986 by Intenational Music Company, New York Copyright Renewed
T:© Copyright 1986 by Intenational Music Company, New York Copyright Renewed
Z:© Copyright 1986 by Intenational Music Company, New York
Z:Copyright Renewed
L:1/8
Q:1/4=64
M:3/4
K:Ab
V:1 bass nm="Trombone"
V:1
"^Andante" z!mf! C!<(! (3(F,(G,)A,) (3(A,!>(!(G,)F,)!<)!!>)! | z!p! C (3F,G,A, (3A,!>(!G,F,!>)! | %2
!mf! z G,!<(! C,=E, G,B,-!<)! | B,A,/G,/ A,F,/=E,/ F,2 | %4
!mp! z!<(! A, G,A, B,/!>(!A,/G,/A,/!<)!!>)! |!p! z A, G,A, C/A,/G,/A,/ |!mp! z B, E,G, B,D- | %7
 DC/B,/ CA,/G,/ A,2 | z C =A,3 G,/A,/ | B,=D =B,3 =A,/B,/ | CE =DC/=B,/ CA, | %11
 !breath!G,G, ^F,/=E,/F,/G,/ G,,2 | z E =DC/=B,/ CA, | !breath!G,G, ^F,/=E,/F,/G,/ G,,2 | %14
 z =D, E,=E, F,^F, | G,3 F,- F,E,/=D,/ | !breath!E,=B, C3 =D | G,E =B,3 C | %18
 !breath!CG, (3C,=D,E, (3E,D,C, | z G, (3C,=D,E, (3E,D,C, | z C B,=A, B,C- | CD/C/ DF, B,,2 | %22
 z B, A,G, A,B,- | B,C/B,/ CE, A,,2 | z A, G,F,/=E,/ F,D, | C,C =B,/=A,/B,/C/ C,2 | %26
 z A, G,F,/=E,/ F,D, | C,C =B,/=A,/B,/C/ C,2 | z A, =D,3 C,/D,/ | E,G, =E,3 =D,/E,/ | %30
 F,C =B,_B, =A,_A, | G,D !breath!C3 B, | A,G,/F,/ =E,3 F, | !breath!F,A, G,3 F, | %34
 !breath!E,C =B,_B, =A,_A, | G,D !breath!C3 B, | A,G,/F,/ =E,3 F, | F,6 |] %38

